!!!SOCIAL_FUNCTION:	bird dance songs
!!!PDT:	1956
!!!OTL: No_168_Hair_Dance_Song_(f).krn
!!!LANG: Non-Tone
!!!LING_GROUP: Muskogean
!!!REG: Florida
**kern
*staff1
=1-
*clefF4
*k[f#c#g#d#]
*M2/4
8G#\L
8G#\J
8c#\L
8c#\J
=2!|:
(8c#\L
8B\J)
4G#\
=3
4B\
8G#\L
8G#\J
=4
2G#\
=5
4B\
8G#\L
8F#\J
=6
(8F#\L
8E\J)
8C#/L
8C#/J
=7
4E\
8C#/L
8C#/J
=8
2BB/
=9||
*M3/4
4C#/
8BB/L
8BB/J
8BB/
8r
=10||
*M2/4
4C#/
8E\L
8E\J
=11
(8C#/L
8BB/J)
4BB/
=12||
*M3/4
4C#/
8BB/L
8BB/J
4BB/
=13
*M2/4
4B\
8c#\L
8c#\J
==:|!
*-
